img/svgs/push-bell.svg

<svg width="49" height="48" viewBox="0 0 49 48" fill="none" xmlns="http://www.w3.org/2000/svg">
<path d="M19.235 8.09925L19.7771 9.49787L20.4231 9.24747L20.6513 8.59324L19.235 8.09925ZM29.7722 8.11953L28.3537 8.60745L28.5782 9.26009L29.2199 9.51418L29.7722 8.11953ZM40.6094 32.0111L39.3297 32.7936L39.3363 32.8044L39.3431 32.8151L40.6094 32.0111ZM40.9999 33.3279L42.4999 33.318L40.9999 33.3279ZM40.6267 34.6491L39.3502 33.8613L39.3435 33.8725L40.6267 34.6491ZM39.6104 35.6128L40.3276 36.9302L40.3276 36.9302L39.6104 35.6128ZM38.219 35.96L38.228 34.46H38.219V35.96ZM10.781 35.96V34.4599L10.772 34.46L10.781 35.96ZM9.38962 35.6128L8.67239 36.9302L8.6724 36.9302L9.38962 35.6128ZM8.37326 34.6491L9.65659 33.8724L9.64976 33.8614L8.37326 34.6491ZM8.00005 33.3279L6.50009 33.318L8.00005 33.3279ZM8.39059 32.0111L9.65693 32.8151L9.6637 32.8044L9.67029 32.7936L8.39059 32.0111ZM10.6424 20.23H12.1424L12.1424 20.228L10.6424 20.23ZM19.1942 8.11511L19.7406 9.51206L19.7406 9.51206L19.1942 8.11511ZM20.6513 8.59324C21.1623 7.12831 22.659 6 24.5001 6V3C21.4326 3 18.766 4.88923 17.8187 7.60526L20.6513 8.59324ZM24.5001 6C26.3472 6 27.8475 7.13564 28.3537 8.60745L31.1906 7.63162C30.2515 4.90143 27.5772 3 24.5001 3V6ZM39.8576 20.3775C39.8576 14.1973 35.8756 8.92298 30.3244 6.72489L29.2199 9.51418C33.7315 11.3006 36.8576 15.5365 36.8576 20.3775H39.8576ZM39.8576 21.5408V20.3775H36.8576V21.5408H39.8576ZM41.8891 31.2286C41.0367 29.8346 39.8576 26.9383 39.8576 21.5408H36.8576C36.8576 27.3837 38.1381 30.8449 39.3297 32.7936L41.8891 31.2286ZM42.4999 33.318C42.495 32.568 42.2767 31.8387 41.8758 31.2071L39.3431 32.8151C39.4473 32.9793 39.4988 33.1596 39.5 33.3377L42.4999 33.318ZM41.9032 35.4369C42.2962 34.8002 42.5048 34.0681 42.4999 33.318L39.5 33.3377C39.5011 33.5159 39.452 33.6964 39.3502 33.8614L41.9032 35.4369ZM40.3276 36.9302C40.977 36.5766 41.526 36.0604 41.91 35.4258L39.3435 33.8725C39.2425 34.0394 39.0899 34.1882 38.8931 34.2953L40.3276 36.9302ZM38.2099 37.4599C38.9482 37.4644 39.6787 37.2835 40.3276 36.9302L38.8932 34.2953C38.6959 34.4027 38.4661 34.4614 38.228 34.46L38.2099 37.4599ZM10.781 37.46H38.219V34.46H10.781V37.46ZM8.6724 36.9302C9.32132 37.2835 10.0518 37.4644 10.7901 37.4599L10.772 34.46C10.5339 34.4614 10.3041 34.4027 10.1068 34.2953L8.6724 36.9302ZM7.08999 35.4258C7.47404 36.0604 8.02303 36.5766 8.67239 36.9302L10.1069 34.2953C9.91006 34.1882 9.75754 34.0394 9.65654 33.8725L7.08999 35.4258ZM6.50009 33.318C6.49516 34.0681 6.70386 34.8002 7.09677 35.4369L9.64976 33.8614C9.54796 33.6964 9.49885 33.5159 9.50002 33.3377L6.50009 33.318ZM7.12424 31.2071C6.72329 31.8387 6.50501 32.568 6.50009 33.318L9.50002 33.3377C9.50119 33.1596 9.55268 32.9793 9.65693 32.8151L7.12424 31.2071ZM9.14244 21.5408C9.14244 26.9383 7.96326 29.8346 7.11088 31.2286L9.67029 32.7936C10.8619 30.8449 12.1424 27.3837 12.1424 21.5408H9.14244ZM9.14244 20.23V21.5408H12.1424V20.23H9.14244ZM10.3182 14.6103C9.54026 16.3901 9.13988 18.3007 9.14244 20.232L12.1424 20.228C12.1404 18.7153 12.4538 17.2148 13.0671 15.8119L10.3182 14.6103ZM13.6653 9.86651C12.235 11.2196 11.0961 12.8308 10.3182 14.6103L13.0671 15.8119C13.6804 14.4087 14.5828 13.1282 15.7269 12.0459L13.6653 9.86651ZM18.6479 6.71816C16.7894 7.44505 15.0956 8.51362 13.6653 9.86651L15.7269 12.0459C16.8712 10.9635 18.2345 10.1012 19.7406 9.51206L18.6479 6.71816ZM18.6929 6.70063C18.6779 6.70644 18.6629 6.71228 18.6479 6.71816L19.7406 9.51206C19.7527 9.50732 19.7649 9.50259 19.7771 9.49787L18.6929 6.70063Z" fill="black"/>
<path d="M30.5 36C30.5 39.3137 27.8137 42 24.5 42C21.1863 42 18.5 39.3137 18.5 36" stroke="black" stroke-width="3" stroke-linecap="round"/>
</svg>

<?xml version="1.0" encoding="utf-8"?>
<!-- Generator: Adobe Illustrator 26.0.1, SVG Export Plug-In . SVG Version: 6.00 Build 0)  -->
<svg version="1.1" id="Layer_1" xmlns="http://www.w3.org/2000/svg" xmlns:xlink="http://www.w3.org/1999/xlink" x="0px" y="0px"
	 viewBox="0 0 49 48" style="enable-background:new 0 0 49 48;" xml:space="preserve">
<style type="text/css">
	.st0{fill:none;stroke:#000000;stroke-width:3;stroke-linecap:round;}
</style>
<path d="M19.2,8.1l0.5,1.4l0.6-0.3l0.2-0.7L19.2,8.1z M29.8,8.1l-1.4,0.5l0.2,0.7l0.6,0.3L29.8,8.1z M40.6,32l-1.3,0.8l0,0l0,0
	L40.6,32z M41,33.3l1.5,0L41,33.3z M40.6,34.6l-1.3-0.8l0,0L40.6,34.6z M39.6,35.6l0.7,1.3l0,0L39.6,35.6z M38.2,36l0-1.5h0V36z
	 M10.8,36v-1.5l0,0L10.8,36z M9.4,35.6l-0.7,1.3h0L9.4,35.6z M8.4,34.6l1.3-0.8l0,0L8.4,34.6z M8,33.3l-1.5,0L8,33.3z M8.4,32
	l1.3,0.8c0,0,0,0,0,0L8.4,32z M10.6,20.2h1.5v0L10.6,20.2z M19.2,8.1l0.5,1.4l0,0L19.2,8.1z M20.7,8.6c0.5-1.5,2-2.6,3.8-2.6V3
	c-3.1,0-5.7,1.9-6.7,4.6L20.7,8.6z M24.5,6c1.8,0,3.3,1.1,3.9,2.6l2.8-1C30.3,4.9,27.6,3,24.5,3V6z M39.9,20.4
	c0-6.2-4-11.5-9.5-13.7l-1.1,2.8c4.5,1.8,7.6,6,7.6,10.9H39.9z M39.9,21.5v-1.2h-3v1.2H39.9z M41.9,31.2c-0.9-1.4-2-4.3-2-9.7h-3
	c0,5.8,1.3,9.3,2.5,11.3L41.9,31.2z M42.5,33.3c0-0.8-0.2-1.5-0.6-2.1l-2.5,1.6c0.1,0.2,0.2,0.3,0.2,0.5L42.5,33.3z M41.9,35.4
	c0.4-0.6,0.6-1.4,0.6-2.1l-3,0c0,0.2,0,0.4-0.1,0.5L41.9,35.4z M40.3,36.9c0.6-0.4,1.2-0.9,1.6-1.5l-2.6-1.6
	c-0.1,0.2-0.3,0.3-0.5,0.4L40.3,36.9z M38.2,37.5c0.7,0,1.5-0.2,2.1-0.5l-1.4-2.6c-0.2,0.1-0.4,0.2-0.7,0.2L38.2,37.5z M10.8,37.5
	h27.4v-3H10.8V37.5z M8.7,36.9c0.6,0.4,1.4,0.5,2.1,0.5l0-3c-0.2,0-0.5-0.1-0.7-0.2L8.7,36.9z M7.1,35.4c0.4,0.6,0.9,1.2,1.6,1.5
	l1.4-2.6c-0.2-0.1-0.3-0.3-0.5-0.4L7.1,35.4z M6.5,33.3c0,0.8,0.2,1.5,0.6,2.1l2.6-1.6c-0.1-0.2-0.2-0.3-0.1-0.5L6.5,33.3z
	 M7.1,31.2c-0.4,0.6-0.6,1.4-0.6,2.1l3,0c0-0.2,0.1-0.4,0.2-0.5L7.1,31.2z M9.1,21.5c0,5.4-1.2,8.3-2,9.7l2.6,1.6
	c1.2-1.9,2.5-5.4,2.5-11.3H9.1z M9.1,20.2v1.3h3v-1.3H9.1z M10.3,14.6c-0.8,1.8-1.2,3.7-1.2,5.6l3,0c0-1.5,0.3-3,0.9-4.4L10.3,14.6z
	 M13.7,9.9c-1.4,1.4-2.6,3-3.3,4.7l2.7,1.2c0.6-1.4,1.5-2.7,2.7-3.8L13.7,9.9z M18.6,6.7c-1.9,0.7-3.6,1.8-5,3.1l2.1,2.2
	c1.1-1.1,2.5-1.9,4-2.5L18.6,6.7z M18.7,6.7C18.7,6.7,18.7,6.7,18.7,6.7l1,2.8c0,0,0,0,0,0L18.7,6.7z"/>
<path class="st0" d="M30.5,36c-0.3,7.9-11.7,7.9-12,0"/>
</svg>
